static/app-icons/light-theme/MaximoSupervisor.svg

<svg xmlns="http://www.w3.org/2000/svg" viewBox="0 0 32 32"><defs><linearGradient id="a" x1="26" y1="26" x2="26" y2="4" gradientUnits="userSpaceOnUse"><stop offset=".5" stop-opacity="0"/><stop offset=".9"/></linearGradient><linearGradient id="c" y1="32" x2="32" gradientUnits="userSpaceOnUse"><stop offset=".1" stop-color="#a56eff"/><stop offset=".9" stop-color="#0f62fe"/></linearGradient><mask id="b" x="0" y="0" width="32" height="32" maskUnits="userSpaceOnUse"><path d="M25 5v23H7V7h3v3h12V4a2 2 0 00-2-2h-8a2 2 0 00-2 2v1H7a2 2 0 00-2 2v21a2 2 0 002 2h18a2 2 0 002-2V5zM12 4h8v4h-8z" fill="#fff"/><path fill="url(#a)" d="M24 4h4v22h-4z"/></mask></defs><g data-name="Layer 2"><g data-name="Light theme icons"><g mask="url(#b)"><path fill="url(#c)" d="M0 0h32v32H0z"/></g><path fill="#001d6c" d="M14 20.18l-3.59-3.59L9 18l5 5 9-9-1.41-1.419L14 20.18z"/></g></g></svg>

<svg xmlns="http://www.w3.org/2000/svg" xmlns:xlink="http://www.w3.org/1999/xlink" viewBox="0 0 32 32"><defs><style>.cls-1{fill:#fff;}.cls-2{fill:url(#linear-gradient);}.cls-3{mask:url(#mask);}.cls-4{fill:url(#linear-gradient-2);}.cls-5{fill:#001d6c;}</style><linearGradient id="linear-gradient" x1="26" y1="26" x2="26" y2="4" gradientUnits="userSpaceOnUse"><stop offset="0.5" stop-opacity="0"/><stop offset="0.9"/></linearGradient><mask id="mask" x="0" y="0" width="32" height="32" maskUnits="userSpaceOnUse"><path class="cls-1" d="M25,5V28H7V7h3v3H22V4a2,2,0,0,0-2-2H12a2,2,0,0,0-2,2V5H7A2,2,0,0,0,5,7V28a2,2,0,0,0,2,2H25a2,2,0,0,0,2-2V5ZM12,4h8V8H12Z"/><rect class="cls-2" x="24" y="4" width="4" height="22"/></mask><linearGradient id="linear-gradient-2" y1="32" x2="32" gradientUnits="userSpaceOnUse"><stop offset="0.1" stop-color="#a56eff"/><stop offset="0.9" stop-color="#0f62fe"/></linearGradient></defs><g id="Layer_2" data-name="Layer 2"><g id="Light_theme_icons" data-name="Light theme icons"><g class="cls-3"><rect class="cls-4" width="32" height="32"/></g><polygon class="cls-5" points="14 20.18 10.41 16.59 9 18 14 23 23 14 21.59 12.581 14 20.18"/></g></g></svg>
